X: 23832
T: Little Red House In Cardiff
R: reel
M: 4/4
K: Gmajor
|:D2|G3 A B2 G2|c3 B A2 c2|B2 G2 GA Bc|d2 G2 F2 D2|
G3 A B2 G2|c3 B A2 c2|B2 G2 FG AF|G6:|
|:B2|AB c2 c2 c2|AB c2 c2 c2|Bc d2 d2 d2|Bc d2 d2 d2|
AB c2 c2 c2|AB c2 c2 c2|B2 G2 FG AF|G6:|

